X:1
T:The Shearin's Nae For You
M:4/4
L:1/4
K:D
 z2 D E| F A E F| D3/2 C/2 B, A,| B,2 D2| D2 D E| F A E F| D3/2 C/2 B, A,|\
 B,2 D2| E2 E F| G F G A| B2 F G| A F E D| E2 D E| F A E F| D3/2 C/2 B, A,|\
 B,2 D2| D2 z2|
